src/svg/icons/light.svg

<svg xmlns="http://www.w3.org/2000/svg" width="512" height="512"><path d="M292.2 381.263h-72.511c-5.082 0-9.201 4.12-9.201 9.203a9.2 9.2 0 0 0 9.201 9.201H292.2a9.2 9.2 0 0 0 9.202-9.201 9.202 9.202 0 0 0-9.202-9.203zm-1.654 30.637h-69.201c-5.082 0-9.201 4.121-9.201 9.202a9.2 9.2 0 0 0 9.201 9.202h69.201a9.2 9.2 0 0 0 9.201-9.202c0-5.081-4.119-9.202-9.201-9.202zm-68.726 30.211C239.735 458.673 241.58 462 248.731 462h13.774c6.99 0 8.714-3.084 27.564-19.889H221.82zm138.879-220.482c0 62.305-53.581 97.22-53.581 146.388h-24.4c.021-60.599 53.142-92.516 53.142-146.388 0-100.84-159.828-100.998-159.828 0 0 53.823 52.2 84.366 53.409 146.388h-24.668c0-49.168-53.581-84.083-53.581-146.388-.001-133.904 209.507-134.04 209.507 0zM269.203 95.112H244.14V50h25.063v45.112zm86.061-21.142L333.18 62.12l-22.056 41.103 22.085 11.85 22.055-41.103zm64.091 62.072l-14.599-20.372-40.099 28.739 14.598 20.371 40.1-28.738zm4.426 158.099l-45.115-18.278-9.409 23.229 45.116 18.277 9.408-23.228zm15.008-88.586h-51.125v25.062h51.125v-25.062zM200.876 103.223L178.82 62.12l-22.084 11.85 22.055 41.103 22.085-11.85zm-53.532 41.186l-40.101-28.739-14.599 20.372 40.1 28.738 14.6-20.371zM143.178 296.9L132.9 274.043l-45.116 20.283 10.276 22.857 45.118-20.283zm-18.84-91.345H73.211v25.062h51.127v-25.062z"/></svg>

<?xml version="1.0" encoding="utf-8"?>

<!-- License Agreement at http://iconmonstr.com/license/ -->

<!DOCTYPE svg PUBLIC "-//W3C//DTD SVG 1.1//EN" "http://www.w3.org/Graphics/SVG/1.1/DTD/svg11.dtd">
<svg version="1.1" xmlns="http://www.w3.org/2000/svg" xmlns:xlink="http://www.w3.org/1999/xlink" x="0px" y="0px"
	 width="512px" height="512px" viewBox="0 0 512 512" enable-background="new 0 0 512 512" xml:space="preserve">
<path id="light-bulb-18-icon" d="M292.2,381.263h-72.511c-5.082,0-9.201,4.12-9.201,9.203c0,5.082,4.119,9.201,9.201,9.201H292.2
	c5.083,0,9.202-4.119,9.202-9.201C301.402,385.383,297.283,381.263,292.2,381.263z M290.546,411.9h-69.201
	c-5.082,0-9.201,4.121-9.201,9.202c0,5.083,4.119,9.202,9.201,9.202h69.201c5.082,0,9.201-4.119,9.201-9.202
	C299.747,416.021,295.628,411.9,290.546,411.9z M221.82,442.111C239.735,458.673,241.58,462,248.731,462h13.774
	c6.99,0,8.714-3.084,27.564-19.889H221.82z M360.699,221.629c0,62.305-53.581,97.22-53.581,146.388h-24.4
	c0.021-60.599,53.142-92.516,53.142-146.388c0-100.84-159.828-100.998-159.828,0c0,53.823,52.2,84.366,53.409,146.388h-24.668
	c0-49.168-53.581-84.083-53.581-146.388C151.191,87.725,360.699,87.589,360.699,221.629z M269.203,95.112H244.14V50h25.063V95.112z
	 M355.264,73.97L333.18,62.12l-22.056,41.103l22.085,11.85L355.264,73.97z M419.355,136.042l-14.599-20.372l-40.099,28.739
	l14.598,20.371L419.355,136.042z M423.781,294.141l-45.115-18.278l-9.409,23.229l45.116,18.277L423.781,294.141z M438.789,205.555
	h-51.125v25.062h51.125V205.555z M200.876,103.223L178.82,62.12l-22.084,11.85l22.055,41.103L200.876,103.223z M147.344,144.409
	l-40.101-28.739l-14.599,20.372l40.1,28.738L147.344,144.409z M143.178,296.9L132.9,274.043l-45.116,20.283l10.276,22.857
	L143.178,296.9z M124.338,205.555H73.211v25.062h51.127V205.555z"/>
</svg>
